X:130
T:I Am a Sailor
M:6/8
L:1/8
K:C
c|"C"(c3 c)eg|"G/B"a(g2 g3)|"F/A"a3ge2|"C"(g6| g3 g2)g|"Am"c'2c'3c'|"Em"
b(a2 a2)g|"F"a(g2 g2) e|"G"(d6|d6)|
"F"c'2c'3c'|"G"b2a3g|"F"aa2g2f|"C"(g6|g6)|"C"c3 eg2|"G/B"a (g2 g2) e|"F/
A"dc2 c2d|1"C"(c6|c6|c6|c3 c2):|2"C"(c6|c6)||
"Em"(b3 b)bb|"Am"c'2(a a2)a|"Em"(b3 b)d'b|"Am".c'z2z3|"F"c'2af2e|"Dm"e(d
2 d2)d|"F"c2c3c|"G"(d6|d3 d)fg|
"F"a2a3a|"G"(b3 b)bb|"Em"b2g2e2|"Am rall"(c'6|c'6)|"F"(c3 c)de|"F"d2c3e|
"G"(d3 d)cB|"C"(c6|c6|c6|c6)||
